Numix/64/mimetypes/application-x-tzo.svg

<?xml version="1.0" encoding="UTF-8" standalone="no"?>
<svg
   xmlns:dc="http://purl.org/dc/elements/1.1/"
   xmlns:cc="http://creativecommons.org/ns#"
   xmlns:rdf="http://www.w3.org/1999/02/22-rdf-syntax-ns#"
   xmlns:svg="http://www.w3.org/2000/svg"
   xmlns="http://www.w3.org/2000/svg"
   xmlns:sodipodi="http://sodipodi.sourceforge.net/DTD/sodipodi-0.dtd"
   xmlns:inkscape="http://www.inkscape.org/namespaces/inkscape"
   width="64px"
   height="64px"
   viewBox="0 0 64 64"
   version="1.1"
   id="svg2"
   inkscape:version="0.91 r13725"
   sodipodi:docname="application-x-xz-compressed-tar.svg">
  <metadata
     id="metadata35">
    <rdf:RDF>
      <cc:Work
         rdf:about="">
        <dc:format>image/svg+xml</dc:format>
        <dc:type
           rdf:resource="http://purl.org/dc/dcmitype/StillImage" />
      </cc:Work>
    </rdf:RDF>
  </metadata>
  <defs
     id="defs33" />
  <sodipodi:namedview
     pagecolor="#ffffff"
     bordercolor="#666666"
     borderopacity="1"
     objecttolerance="10"
     gridtolerance="10"
     guidetolerance="10"
     inkscape:pageopacity="0"
     inkscape:pageshadow="2"
     inkscape:window-width="1366"
     inkscape:window-height="704"
     id="namedview31"
     showgrid="false"
     inkscape:zoom="1"
     inkscape:cx="33.872901"
     inkscape:cy="2.6598439"
     inkscape:window-x="0"
     inkscape:window-y="27"
     inkscape:window-maximized="1"
     inkscape:current-layer="svg2"
     showguides="false">
    <inkscape:grid
       type="xygrid"
       id="grid4163" />
  </sodipodi:namedview>
  <g
     id="surface1">
    <path
       style=" stroke:none;fill-rule:nonzero;fill:rgb(75.686275%,58.431373%,32.54902%);fill-opacity:1;"
       d="M 10.671875 0 C 9.296875 0 8 1.355469 8 2.789062 L 8 61.210938 C 8 62.566406 9.375 64 10.671875 64 L 53.328125 64 C 54.625 64 56 62.566406 56 61.210938 L 56 18 L 38 0 Z M 10.671875 0 "
       id="path5" />
    <path
       style=" stroke:none;fill-rule:nonzero;fill:rgb(0%,0%,0%);fill-opacity:0.196078;"
       d="M 8 48 L 8 61.335938 C 8 62.632812 9.375 64 10.664062 64 L 53.335938 64 C 54.625 64 56 62.632812 56 61.335938 L 56 48 Z M 8 48 "
       id="path7" />
    <path
       style="fill:#ffffff;fill-opacity:1;fill-rule:nonzero;stroke:none"
       d="m 26.679094,50.988281 0,1.815418 -3.210937,0 0,9.184582 -2.441407,0 0,-9.184582 -3.21875,0 0,-1.815418 8.871094,0"
       id="path9"
       inkscape:connector-curvature="0" />
    <path
       style=" stroke:none;fill-rule:nonzero;fill:rgb(0%,0%,0%);fill-opacity:0.196078;"
       d="M 42 18 L 56 32 L 56 18 Z M 42 18 "
       id="path11" />
    <path
       style=" stroke:none;fill-rule:nonzero;fill:rgb(100%,100%,100%);fill-opacity:0.392157;"
       d="M 38 0 L 55.984375 18 L 40.757812 18 C 39.410156 18 38 16.574219 38 15.226562 Z M 38 0 "
       id="path15" />
    <path
       style="fill:#ffffff;fill-opacity:1;fill-rule:nonzero;stroke:none"
       d="m 35.800281,52.528773 c -1.838996,2.527462 -3.508585,5.085358 -5.066406,7.663772 l 5.246094,0 0,1.807455 -8.042969,0 0,-1.262034 c 1.549593,-2.755292 3.285659,-5.401712 4.949219,-7.922548 l -4.695313,0 0,-1.815418 7.609375,0 0,1.528773"
       id="path17"
       inkscape:connector-curvature="0"
       sodipodi:nodetypes="ccccccccccc" />
    <path
       style=" stroke:none;fill-rule:evenodd;fill:rgb(97.647059%,97.647059%,97.647059%);fill-opacity:1;"
       d="M 18 0 L 24 0 L 24 6 L 18 6 Z M 18 0 "
       id="path19" />
    <path
       style=" stroke:none;fill-rule:evenodd;fill:rgb(97.647059%,97.647059%,97.647059%);fill-opacity:1;"
       d="M 24 6 L 30 6 L 30 12 L 24 12 Z M 24 6 "
       id="path21" />
    <path
       style=" stroke:none;fill-rule:evenodd;fill:rgb(97.647059%,97.647059%,97.647059%);fill-opacity:1;"
       d="M 18 12 L 24 12 L 24 18 L 18 18 Z M 18 12 "
       id="path23" />
    <path
       style=" stroke:none;fill-rule:evenodd;fill:rgb(97.647059%,97.647059%,97.647059%);fill-opacity:1;"
       d="M 24 18 L 30 18 L 30 24 L 24 24 Z M 24 18 "
       id="path25" />
    <path
       style=" stroke:none;fill-rule:evenodd;fill:rgb(97.647059%,97.647059%,97.647059%);fill-opacity:1;"
       d="M 18 24 L 24 24 L 24 30 L 18 30 Z M 18 24 "
       id="path27" />
    <path
       style=" stroke:none;fill-rule:evenodd;fill:rgb(97.647059%,97.647059%,97.647059%);fill-opacity:1;"
       d="M 18 32 L 30 32 L 30 44 L 18 44 Z M 18 32 "
       id="path29" />
  </g>
  <path
     inkscape:connector-curvature="0"
     style="fill:#ffffff;fill-opacity:1;fill-rule:nonzero;stroke:none"
     d="m 39.426228,56.496875 c 0,0.519531 0.01613,1.011719 0.05645,1.46875 0.05242,0.449219 0.153226,0.839844 0.286291,1.175781 0.145159,0.335938 0.346774,0.597656 0.600806,0.792969 0.262096,0.195313 0.694741,0.292969 1.126192,0.292969 0.423388,0 0.864129,-0.09766 1.11816,-0.292969 0.270161,-0.195313 0.471774,-0.457031 0.608871,-0.792969 0.141129,-0.351562 0.233871,-0.742187 0.278225,-1.191406 0.04838,-0.449219 0.08065,-0.933594 0.08065,-1.453125 0,-0.515625 -0.03226,-1 -0.08065,-1.449219 -0.04436,-0.464844 -0.137098,-0.855468 -0.278228,-1.191406 -0.137096,-0.335938 -0.330644,-0.597656 -0.592742,-0.792969 -0.254032,-0.195312 -0.702836,-0.292969 -1.134288,-0.292969 -0.431451,0 -0.864096,0.09766 -1.126193,0.292969 -0.254033,0.195313 -0.455646,0.464844 -0.600806,0.808594 -0.133065,0.335937 -0.233872,0.726563 -0.286291,1.175781 -0.04032,0.449219 -0.05645,0.933594 -0.05645,1.449219 m -2.426225,0 c 0,-1.839844 0.399193,-3.230469 1.189516,-4.160156 0.794355,-0.949219 1.899193,-1.414063 3.306451,-1.414063 1.467743,0 2.580645,0.464844 3.346775,1.414063 C 45.612903,53.266406 46,54.657031 46,56.496875 c 0,1.84375 -0.395162,3.234375 -1.173387,4.179687 -0.782259,0.933594 -1.879033,1.398438 -3.306452,1.398438 -1.467742,0 -2.588709,-0.464844 -3.370968,-1.398438 -0.770159,-0.945312 -1.149191,-2.335937 -1.149191,-4.179687"
     id="path15-5"
     sodipodi:nodetypes="ccccscccscccsccccccscscscc" />
</svg>

<svg xmlns="http://www.w3.org/2000/svg" viewBox="0 0 64 64">
 <g>
  <path d="m 10.672 0 c -1.375 0 -2.672 1.355 -2.672 2.789 l 0 58.42 c 0 1.355 1.375 2.789 2.672 2.789 l 42.656 0 c 1.297 0 2.672 -1.434 2.672 -2.789 l 0 -43.21 l -18 -18 m -27.328 0" style="fill:#c19553;fill-opacity:1;stroke:none;fill-rule:nonzero"/>
  <path d="m 8 48 l 0 13.336 c 0 1.297 1.375 2.664 2.664 2.664 l 42.672 0 c 1.289 0 2.664 -1.367 2.664 -2.664 l 0 -13.336 m -48 0" style="fill:#000;fill-opacity:0.196;stroke:none;fill-rule:nonzero"/>
  <path d="m 26.679 50.988 0 1.815 -3.211 0 0 9.185 -2.441 0 0 -9.185 -3.219 0 0 -1.815 8.871 0" style="fill:#fff;fill-opacity:1;stroke:none;fill-rule:nonzero"/>
  <path d="m 42 18 l 14 14 l 0 -14 m -14 0" style="fill:#000;fill-opacity:0.196;stroke:none;fill-rule:nonzero"/>
  <path d="m 38 0 l 17.984 18 l -15.227 0 c -1.348 0 -2.758 -1.426 -2.758 -2.773 m 0 -15.227" style="fill:#fff;fill-opacity:0.392;stroke:none;fill-rule:nonzero"/>
  <path d="m 35.8 52.53 c -1.839 2.527 -3.509 5.085 -5.066 7.664 l 5.246 0 0 1.807 -8.04 0 0 -1.262 c 1.55 -2.755 3.286 -5.402 4.949 -7.923 l -4.695 0 0 -1.815 7.609 0 0 1.529" style="fill:#fff;fill-opacity:1;stroke:none;fill-rule:nonzero"/>
  <path d="m 18 0 l 6 0 l 0 6 l -6 0 m 0 -6" style="fill:#f9f9f9;fill-opacity:1;stroke:none;fill-rule:evenodd"/>
  <path d="m 24 6 l 6 0 l 0 6 l -6 0 m 0 -6" style="fill:#f9f9f9;fill-opacity:1;stroke:none;fill-rule:evenodd"/>
  <path d="m 18 12 l 6 0 l 0 6 l -6 0 m 0 -6" style="fill:#f9f9f9;fill-opacity:1;stroke:none;fill-rule:evenodd"/>
  <path d="m 24 18 l 6 0 l 0 6 l -6 0 m 0 -6" style="fill:#f9f9f9;fill-opacity:1;stroke:none;fill-rule:evenodd"/>
  <path d="m 18 24 l 6 0 l 0 6 l -6 0 m 0 -6" style="fill:#f9f9f9;fill-opacity:1;stroke:none;fill-rule:evenodd"/>
  <path d="m 18 32 l 12 0 l 0 12 l -12 0 m 0 -12" style="fill:#f9f9f9;fill-opacity:1;stroke:none;fill-rule:evenodd"/>
 </g>
 <path d="m 39.43 56.5 c 0 0.52 0.016 1.012 0.056 1.469 0.052 0.449 0.153 0.84 0.286 1.176 0.145 0.336 0.347 0.598 0.601 0.793 0.262 0.195 0.695 0.293 1.126 0.293 0.423 0 0.864 -0.098 1.118 -0.293 0.27 -0.195 0.472 -0.457 0.609 -0.793 0.141 -0.352 0.234 -0.742 0.278 -1.191 0.048 -0.449 0.081 -0.934 0.081 -1.453 0 -0.516 -0.032 -1 -0.081 -1.449 -0.044 -0.465 -0.137 -0.855 -0.278 -1.191 -0.137 -0.336 -0.331 -0.598 -0.593 -0.793 -0.254 -0.195 -0.703 -0.293 -1.134 -0.293 -0.431 0 -0.864 0.098 -1.126 0.293 -0.254 0.195 -0.456 0.465 -0.601 0.809 -0.133 0.336 -0.234 0.727 -0.286 1.176 -0.04 0.449 -0.056 0.934 -0.056 1.449 m -2.426 0 c 0 -1.84 0.399 -3.23 1.19 -4.16 0.794 -0.949 1.899 -1.414 3.306 -1.414 1.468 0 2.581 0.465 3.347 1.414 c 0.77 0.93 1.157 2.32 1.157 4.16 c 0 1.844 -0.395 3.234 -1.173 4.18 -0.782 0.934 -1.879 1.398 -3.306 1.398 -1.468 0 -2.589 -0.465 -3.371 -1.398 -0.77 -0.945 -1.149 -2.336 -1.149 -4.18" style="fill:#fff;fill-opacity:1;stroke:none;fill-rule:nonzero"/>
</svg>
